img/search.svg

<svg xmlns="http://www.w3.org/2000/svg" data-encore-id="icon" role="img" aria-hidden="true" class="Svg-sc-ytk21e-0 bneLcE search-icon QbaKKdcHNA2x3_YJvpYu" viewBox="0 0 24 24"><path d="M10.533 1.27893C5.35215 1.27893 1.12598 5.41887 1.12598 10.5579C1.12598 15.697 5.35215 19.8369 10.533 19.8369C12.767 19.8369 14.8235 19.0671 16.4402 17.7794L20.7929 22.132C21.1834 22.5226 21.8166 22.5226 22.2071 22.132C22.5976 21.7415 22.5976 21.1083 22.2071 20.7178L17.8634 16.3741C19.1616 14.7849 19.94 12.7634 19.94 10.5579C19.94 5.41887 15.7138 1.27893 10.533 1.27893ZM3.12598 10.5579C3.12598 6.55226 6.42768 3.27893 10.533 3.27893C14.6383 3.27893 17.94 6.55226 17.94 10.5579C17.94 14.5636 14.6383 17.8369 10.533 17.8369C6.42768 17.8369 3.12598 14.5636 3.12598 10.5579Z"></path></svg>

<svg xmlns="http://www.w3.org/2000/svg" data-encore-id="icon" role="img" aria-hidden="true" class="Svg-sc-ytk21e-0 iYxpxA search-icon" viewBox="0 0 24 24"><path d="M10.533 1.279c-5.18 0-9.407 4.14-9.407 9.279s4.226 9.279 9.407 9.279c2.234 0 4.29-.77 5.907-2.058l4.353 4.353a1 1 0 1 0 1.414-1.414l-4.344-4.344a9.157 9.157 0 0 0 2.077-5.816c0-5.14-4.226-9.28-9.407-9.28zm-7.407 9.279c0-4.006 3.302-7.28 7.407-7.28s7.407 3.274 7.407 7.28-3.302 7.279-7.407 7.279-7.407-3.273-7.407-7.28z"></path></svg>
